icons/outline/shape-off.svg

<!--
category: Design
tags: [draw, square, form, create, outline]
version: "1.66"
unicode: "f1a0"
-->
<svg
  xmlns="http://www.w3.org/2000/svg"
  width="24"
  height="24"
  viewBox="0 0 24 24"
  fill="none"
  stroke="currentColor"
  stroke-width="2"
  stroke-linecap="round"
  stroke-linejoin="round"
>
  <path d="M3.575 3.597a2 2 0 0 0 2.849 2.808m12.576 -1.405m-2 0a2 2 0 1 0 4 0a2 2 0 1 0 -4 0m-12 14m-2 0a2 2 0 1 0 4 0a2 2 0 1 0 -4 0m14.574 -1.402a2 2 0 0 0 2.826 2.83m-15.4 -13.428v10m4 -12h8m-10 14h10m2 -12v8m-16 -12l18 18" />
</svg>

<!--
category: Design
tags: [draw, square, form, create, outline]
version: "1.66"
unicode: "f1a0"
-->
<svg
  xmlns="http://www.w3.org/2000/svg"
  width="24"
  height="24"
  viewBox="0 0 24 24"
  fill="none"
  stroke="currentColor"
  stroke-width="2"
  stroke-linecap="round"
  stroke-linejoin="round"
>
    <path d="M3.575 3.597a2 2 0 0 0 2.849 2.808M19 5m-2 0a2 2 0 1 0 4 0a2 2 0 1 0 -4 0M5 19m-2 0a2 2 0 1 0 4 0a2 2 0 1 0 -4 0M17.574 17.598a2 2 0 0 0 2.826 2.83M5 7v10M9 5h8M7 19h10M19 7v8M3 3l18 18" />
</svg>
